X: 11041
Q: "Moderate."
M: C
L: 1/8
K: D
d>efa d2Ad | (BA)GF {F}E2zD/E/ |\
a<f{f}ed {c}B2Ad | F2{F}ED D2zD |\
(F<A)AB (AB)de | fdAf Hg2fg |\
a>f{f}ed {c}B2Ad | {G}F2ED D2z |]


